Numix-GalliumOS/16/devices/audio-headset.svg

<?xml version="1.0" encoding="UTF-8" standalone="no"?>
<svg
   xmlns:dc="http://purl.org/dc/elements/1.1/"
   xmlns:cc="http://creativecommons.org/ns#"
   xmlns:rdf="http://www.w3.org/1999/02/22-rdf-syntax-ns#"
   xmlns:svg="http://www.w3.org/2000/svg"
   xmlns="http://www.w3.org/2000/svg"
   xmlns:sodipodi="http://sodipodi.sourceforge.net/DTD/sodipodi-0.dtd"
   xmlns:inkscape="http://www.inkscape.org/namespaces/inkscape"
   viewBox="0 0 16 16"
   id="svg2"
   version="1.1"
   inkscape:version="0.91 r"
   sodipodi:docname="audio-headset.svg"
   width="16"
   height="16">
  <metadata
     id="metadata12">
    <rdf:RDF>
      <cc:Work
         rdf:about="">
        <dc:format>image/svg+xml</dc:format>
        <dc:type
           rdf:resource="http://purl.org/dc/dcmitype/StillImage" />
        <dc:title />
      </cc:Work>
    </rdf:RDF>
  </metadata>
  <defs
     id="defs10" />
  <sodipodi:namedview
     pagecolor="#ffffff"
     bordercolor="#666666"
     borderopacity="1"
     objecttolerance="10"
     gridtolerance="10"
     guidetolerance="10"
     inkscape:pageopacity="0"
     inkscape:pageshadow="2"
     inkscape:window-width="1920"
     inkscape:window-height="1056"
     id="namedview8"
     showgrid="true"
     inkscape:zoom="22.627416"
     inkscape:cx="10.810185"
     inkscape:cy="13.098785"
     inkscape:window-x="0"
     inkscape:window-y="24"
     inkscape:window-maximized="1"
     inkscape:current-layer="svg2">
    <inkscape:grid
       type="xygrid"
       id="grid4140" />
  </sodipodi:namedview>
  <path
     style="fill:#faae40;fill-opacity:1;fill-rule:evenodd;stroke:none;stroke-width:1px;stroke-linecap:butt;stroke-linejoin:miter;stroke-opacity:1"
     d="m 7.9087215,1.7069742 c 0,-5e-7 -1.1784857,0.086954 -1.9641435,0.3820869 C 5.1589207,2.384194 4.6525764,2.7274079 3.5876066,3.5130657 2.5226364,4.298723 3.0290528,4.44987 3.0290528,4.44987 3.3135167,4.48241 3.6823741,4.47049 3.9351681,4.2979555 4.2574205,4.0780156 4.9606933,3.5124582 5.5517496,3.2706163 6.2953099,2.9663749 7.1052977,2.7665379 7.9087215,2.7665379 c 0.8034237,0 1.6134117,0.199837 2.3569715,0.5040784 0.591057,0.2418419 1.294329,0.8073993 1.616582,1.0273392 0.252794,0.172534 0.621651,0.184458 0.906115,0.1519145 0,0 0.506416,-0.151147 -0.558554,-0.9368043 C 11.164866,2.7274079 10.658522,2.384194 9.8728652,2.0890611 9.0872072,1.7939287 7.9087215,1.7069737 7.9087215,1.7069742 Z"
     id="path4210"
     inkscape:connector-curvature="0"
     sodipodi:nodetypes="csscssasscssc" />
  <path
     style="opacity:1;fill:none;fill-opacity:1;fill-rule:nonzero;stroke:#515151;stroke-width:0.59999985;stroke-linecap:butt;stroke-linejoin:miter;stroke-miterlimit:4;stroke-dasharray:none;stroke-dashoffset:0;stroke-opacity:1"
     id="path4142"
     transform="scale(-1,-1)"
     sodipodi:type="arc"
     sodipodi:cx="-7.9999981"
     sodipodi:cy="-7.8957"
     sodipodi:rx="6.1999984"
     sodipodi:ry="6.1999984"
     sodipodi:start="0"
     sodipodi:end="3.1415927"
     sodipodi:open="true"
     d="m -1.7999997,-7.8957 a 6.1999984,6.1999984 0 0 1 -3.0999993,5.3693562 6.1999984,6.1999984 0 0 1 -6.199998,-2e-7 6.1999984,6.1999984 0 0 1 -3.099999,-5.3693563" />
  <path
     style="fill:#faae40;fill-opacity:1;fill-rule:evenodd;stroke:none;stroke-width:1px;stroke-linecap:butt;stroke-linejoin:miter;stroke-opacity:1"
     d="m 1.5000002,7.8957006 0.1,1.1999997 0.5999998,0 -0.1,-1.1999997 z"
     id="path4166"
     inkscape:connector-curvature="0"
     sodipodi:nodetypes="ccccc" />
  <rect
     style="opacity:1;fill:#515151;fill-opacity:1;fill-rule:nonzero;stroke:none;stroke-width:1;stroke-linecap:butt;stroke-linejoin:miter;stroke-miterlimit:4;stroke-dasharray:none;stroke-dashoffset:0;stroke-opacity:1"
     id="rect4157"
     width="2.7999992"
     height="6.3999982"
     x="1.6011833"
     y="8.4003735"
     ry="0.79999977"
     rx="0.79999977"
     transform="matrix(0.9961947,-0.08715574,0.08715574,0.9961947,0,0)" />
  <path
     sodipodi:nodetypes="ccccccc"
     style="fill:#515151;fill-opacity:1;fill-rule:evenodd;stroke:none;stroke-width:1px;stroke-linecap:butt;stroke-linejoin:miter;stroke-opacity:1"
     d="M 1.6000002,9.0955348 2.0532101,14.275745 2.4516874,14.24088 2.4168225,13.842403 2.8152999,13.807543 2.3969525,9.0258093 Z"
     id="path4155"
     inkscape:connector-curvature="0" />
  <rect
     style="opacity:1;fill:#faae40;fill-opacity:1;fill-rule:nonzero;stroke:none;stroke-width:1;stroke-linecap:butt;stroke-linejoin:miter;stroke-miterlimit:4;stroke-dasharray:none;stroke-dashoffset:0;stroke-opacity:1"
     id="rect4159"
     width="0.79999977"
     height="6.3999982"
     x="1.6011833"
     y="8.4003735"
     transform="matrix(0.9961947,-0.08715574,0.08715574,0.9961947,0,0)" />
  <path
     sodipodi:nodetypes="ccccc"
     inkscape:connector-curvature="0"
     id="path4181"
     d="m 14.499997,7.8957006 -0.1,1.1999997 -0.6,0 0.1,-1.1999997 z"
     style="fill:#faae40;fill-opacity:1;fill-rule:evenodd;stroke:none;stroke-width:1px;stroke-linecap:butt;stroke-linejoin:miter;stroke-opacity:1" />
  <rect
     rx="0.7999661"
     ry="0.79999954"
     y="7.005827"
     x="-14.337933"
     height="6.3999963"
     width="2.7998817"
     id="rect4185"
     style="opacity:1;fill:#515151;fill-opacity:1;fill-rule:nonzero;stroke:none;stroke-width:1;stroke-linecap:butt;stroke-linejoin:miter;stroke-miterlimit:4;stroke-dasharray:none;stroke-dashoffset:0;stroke-opacity:1"
     transform="matrix(-0.99619438,-0.08715941,-0.08715207,0.99619502,0,0)" />
  <path
     inkscape:connector-curvature="0"
     id="path4187"
     d="m 14.399996,9.0955348 -0.45319,5.1802102 -0.398461,-0.03486 0.03486,-0.398477 -0.398461,-0.03486 0.41833,-4.7817337 z"
     style="fill:#515151;fill-opacity:1;fill-rule:evenodd;stroke:none;stroke-width:1px;stroke-linecap:butt;stroke-linejoin:miter;stroke-opacity:1"
     sodipodi:nodetypes="ccccccc" />
  <rect
     y="7.005827"
     x="-14.337933"
     height="6.3999963"
     width="0.7999661"
     id="rect4189"
     style="opacity:1;fill:#faae40;fill-opacity:1;fill-rule:nonzero;stroke:none;stroke-width:1;stroke-linecap:butt;stroke-linejoin:miter;stroke-miterlimit:4;stroke-dasharray:none;stroke-dashoffset:0;stroke-opacity:1"
     transform="matrix(-0.99619438,-0.08715941,-0.08715207,0.99619502,0,0)" />
  <path
     style="color:#000000;font-style:normal;font-variant:normal;font-weight:normal;font-stretch:normal;font-size:medium;line-height:normal;font-family:sans-serif;text-indent:0;text-align:start;text-decoration:none;text-decoration-line:none;text-decoration-style:solid;text-decoration-color:#000000;letter-spacing:normal;word-spacing:normal;text-transform:none;direction:ltr;block-progression:tb;writing-mode:lr-tb;baseline-shift:baseline;text-anchor:start;white-space:normal;clip-rule:nonzero;display:inline;overflow:visible;visibility:visible;opacity:1;isolation:auto;mix-blend-mode:normal;color-interpolation:sRGB;color-interpolation-filters:linearRGB;solid-color:#000000;solid-opacity:1;fill:#515151;fill-opacity:1;fill-rule:nonzero;stroke:none;stroke-width:1.5;stroke-linecap:round;stroke-linejoin:miter;stroke-miterlimit:4;stroke-dasharray:none;stroke-dashoffset:0;stroke-opacity:1;color-rendering:auto;image-rendering:auto;shape-rendering:auto;text-rendering:auto;enable-background:accumulate"
     d="m 7.9999985,0.0957031 c -0.169055,-0.0022 -0.3065449,0.135639 -0.3039064,0.30468745 0.0026,0.16537746 0.1385229,0.29746942 0.3039064,0.29531242 3.9800015,0 7.1999975,3.21998663 7.1999975,7.19999763 0,1.1999997 -0.179839,3.3639504 -0.549999,3.4406244 -0.261124,0.05409 -0.65,0.159374 -0.65,0.159374 l 0,0.6 c 0,0 1.038755,-0.129246 1.282092,-0.486826 0.15722,-0.231032 0.519258,-1.313173 0.517907,-3.7131724 0,-4.3042744 -3.495731,-7.7999975 -7.7999975,-7.7999975 z"
     id="path4142-2"
     inkscape:connector-curvature="0"
     sodipodi:nodetypes="ccccsccscc" />
  <rect
     style="opacity:1;fill:#515151;fill-opacity:1;fill-rule:nonzero;stroke:none;stroke-width:1.5;stroke-linecap:round;stroke-linejoin:miter;stroke-miterlimit:4;stroke-dasharray:none;stroke-dashoffset:0;stroke-opacity:1"
     id="rect4245"
     width="1.1999997"
     height="0.82426381"
     x="7.9999981"
     y="0.27143937"
     rx="0.27999994" />
</svg>

<svg xmlns="http://www.w3.org/2000/svg" viewBox="0 0 16 16">
 <path d="m 7.909 1.707 c 0 0 -1.178 0.087 -1.964 0.382 c -0.786 0.295 -1.292 0.638 -2.357 1.424 -1.065 0.786 -0.559 0.937 -0.559 0.937 0.284 0.033 0.653 0.021 0.906 -0.152 0.322 -0.22 1.026 -0.785 1.617 -1.027 0.744 -0.304 1.554 -0.504 2.357 -0.504 c 0.803 0 1.613 0.2 2.357 0.504 0.591 0.242 1.294 0.807 1.617 1.027 0.253 0.173 0.622 0.184 0.906 0.152 0 0 0.506 -0.151 -0.559 -0.937 c -1.065 -0.786 -1.571 -1.129 -2.357 -1.424 -0.786 -0.295 -1.964 -0.382 -1.964 -0.382" style="fill:#faae40;fill-opacity:1;stroke:none;fill-rule:evenodd"/>
 <path transform="scale(-1,-1)" d="m -1.8 -7.896 a 6.2 6.2 0 0 1 -3.1 5.369 6.2 6.2 0 0 1 -6.2 0 6.2 6.2 0 0 1 -3.1 -5.369" style="stroke-dasharray:none;stroke-opacity:1;fill:none;opacity:1;stroke-miterlimit:4;fill-opacity:1;stroke:#515151;fill-rule:nonzero;stroke-linecap:butt;stroke-linejoin:miter;stroke-width:0.6;stroke-dashoffset:0"/>
 <path d="m 1.5 7.896 0.1 1.2 0.6 0 -0.1 -1.2 z" style="fill:#faae40;fill-opacity:1;stroke:none;fill-rule:evenodd"/>
 <rect width="2.8" height="6.4" x="1.601" y="8.4" rx="0.8" transform="matrix(0.9961947,-0.08715574,0.08715574,0.9961947,0,0)" style="fill:#515151;opacity:1;fill-opacity:1;stroke:none;fill-rule:nonzero"/>
 <path d="m 1.6 9.1 0.453 5.18 0.398 -0.035 -0.035 -0.398 0.398 -0.035 -0.418 -4.782" style="fill:#515151;fill-opacity:1;stroke:none;fill-rule:evenodd"/>
 <rect width="0.8" height="6.4" x="1.601" y="8.4" transform="matrix(0.9961947,-0.08715574,0.08715574,0.9961947,0,0)" style="fill:#faae40;opacity:1;fill-opacity:1;stroke:none;fill-rule:nonzero"/>
 <path d="m 14.5 7.896 -0.1 1.2 -0.6 0 0.1 -1.2 z" style="fill:#faae40;fill-opacity:1;stroke:none;fill-rule:evenodd"/>
 <rect rx="0.8" y="7.01" x="-14.338" height="6.4" width="2.8" transform="matrix(-0.99619438,-0.08715941,-0.08715207,0.99619502,0,0)" style="fill:#515151;opacity:1;fill-opacity:1;stroke:none;fill-rule:nonzero"/>
 <path d="m 14.4 9.1 -0.453 5.18 -0.398 -0.035 0.035 -0.398 -0.398 -0.035 0.418 -4.782 z" style="fill:#515151;fill-opacity:1;stroke:none;fill-rule:evenodd"/>
 <rect y="7.01" x="-14.338" height="6.4" width="0.8" transform="matrix(-0.99619438,-0.08715941,-0.08715207,0.99619502,0,0)" style="fill:#faae40;opacity:1;fill-opacity:1;stroke:none;fill-rule:nonzero"/>
 <path d="m 8 0.096 c -0.169 -0.002 -0.307 0.136 -0.304 0.305 0.003 0.165 0.139 0.297 0.304 0.295 3.98 0 7.2 3.22 7.2 7.2 0 1.2 -0.18 3.364 -0.55 3.441 -0.261 0.054 -0.65 0.159 -0.65 0.159 l 0 0.6 c 0 0 1.039 -0.129 1.282 -0.487 0.157 -0.231 0.519 -1.313 0.518 -3.713 0 -4.304 -3.496 -7.8 -7.8 -7.8 z" mix-blend-mode="normal" isolation="auto" white-space="normal" solid-opacity="1" solid-color="#000000" style="visibility:visible;shape-rendering:auto;color-interpolation-filters:linearRGB;fill:#515151;opacity:1;image-rendering:auto;fill-opacity:1;stroke:none;display:inline;color:#000;fill-rule:nonzero;color-rendering:auto;color-interpolation:sRGB"/>
 <rect width="1.2" height="0.824" x="8" y="0.271" rx="0.28" style="fill:#515151;opacity:1;fill-opacity:1;stroke:none;fill-rule:nonzero"/>
</svg>
